!!!COM: Music21
!!!OTL: polka_La-Molinera
!!!OMV: polka_La-Molinera
**kern
*clefG2
*k[b-e-a-]
*
*M2/4
=1
4gg
4gg
=
8ffL
8ggJ
8ffL
8ee-J
=
8ddL
8ccJ
4b-
=
4gg
4gg
=
8ddL
8ffJ
8ee-L
8ddJ
=
2cc
=
4ff
8ffL
8ee-J
=
8ddL
8ee-J
8ddL
8ccJ
=
8ddL
8ccJ
8b-L
8ccJ
=
4dd
8ddL
8ccJ
=
8b-L
8ccJ
8b-L
8a-J
=
2g
=||
*M2/4
4gg
4gg
=
8ffL
8ggJ
8ffL
8ee-J
=
8ddL
8ccJ
4b-
=
4gg
4gg
=
8ddL
8ffJ
8ee-L
8ddJ
=
2cc
=
4ff
8ffL
8ee-J
=
8ddL
8ee-J
8ddL
8ccJ
=
8ddL
8ccJ
8b-L
8ccJ
=
4dd
8ddL
8ccJ
=
8b-L
8ccJ
8b-L
8a-J
=
4.g
8b-
=||
4cc
4ff
=
8ffL
8ee-J
8ddL
8ccJ
=
8ddL
8ccJ
8b-L
8ddJ
=
4ee-
8ggL
8aa-J
=
8ggL
8ffJ
8ee-L
8ddJ
=
2ee-
=
4bb-
8ggL
8ffJ
=
4ee-
8ffL
8ggJ
=
4ff
4dd
=
8ee-L
8ee-J
8ddL
8ccJ
=
8ddL
8ddJ
8ccL
8b-J
=
2cc
=||
4cc
4ff
=
8ffL
8ee-J
8ddL
8ccJ
=
8ddL
8ccJ
8b-L
8ddJ
=
4ee-
8ggL
8aa-J
=
8ggL
8ffJ
8ee-L
8ddJ
=
2ee-
=
4bb-
8ggL
8ffJ
=
4ee-
8ffL
8ggJ
=
4ff
4dd
=
8ee-L
8ee-J
8ddL
8ccJ
=
8ddL
8ddJ
8ccL
8b-J
=
2cc
=||
*-
